!!!COM: Bach, Johann Sebastian
!!!OTL: Lobt Gott, ihr Christen, allzugleich
!!!ONM: No. 54
!!!OCL: Erk
!!!YOE: Riemenschneider, Albert
!!!OPR: 371 Harmonized Chorales and 69 Chorale Melodies with Figured Bass
!!!OPT: Bach Chorale Harmonizations
**kern	**kern	**kern	**kern
! bass	! tenor	! alto	! soprano
*M4/4	*M4/4	*M4/4	*M4/4
*G:	*G:	*G:	*G:
4G	4B	4d	4g
=1	=1	=1	=1
4F#	4A	8d	4dd
.	.	8e	.
4D	8d	4f#	4dd
.	8c	.	.
8G	8B	4g	4dd
8A	8c	.	.
4B	4d	4g	4dd
=2	=2	=2	=2
4C	8c	4g	4ee
.	8B	.	.
4D	8A	4f#	8dd
.	8d	.	8cc
4G;	4d;	4g;	4b;
4F#	4d	4a	4a
=3	=3	=3	=3
4E	4G	4g	8b
.	.	.	8cc#
4D	4A	4f#	4dd
4G	4B	8e	4ee
.	.	8f#	.
4A	4c#	4g	4ee
=4	=4	=4	=4
2D;	2A;	2f#;	2dd;
4r	4r	4r	4r
4F#	8d	4a	4dd
.	8c	.	.
=5	=5	=5	=5
4G	4B	4g	4dd
4A	4c	4f#	4dd
4B	4d	4g	4dd
4E	4e	4g	8b
.	.	.	8cc
=6	=6	=6	=6
4BB	4d	4g	4dd
4C	4e	8a	8cc
.	.	8g	8b
4D;	4A;	4f#;	4a;
4BB	4B	4f#	4dd
=7	=7	=7	=7
8E	8B	8g	[8cc
8F#	8A	[8a	8cc]
4G	8B	8a]	4b
.	8c	[8g	.
4D	4d	8g]	4a
.	.	8e	.
4D#	4c	4f#	4a
=8	=8	=8	=8
8E	4B	2g	8g
8F#	.	.	8a
8G	4e	.	8b
8A	.	.	8cc
4B;	4d;	4f#;	4dd;
4G	4B	4g	4dd
=9	=9	=9	=9
4E	8c	4g	4cc
.	8d	.	.
8D	4e	4g	8b
8C	.	.	8a
4D	4d	4g	4b
4D	8d	4f#	4a
.	8c	.	.
=10	=10	=10	=10
2.GG;	2.B;	2.d;	2.g;
==	==	==	==
*-	*-	*-	*-
!!!CDT: 1685/3//-1750/7/28
!!!OCY: Deutschland
!!!AGN: chorale
!!!AST: Baroque
!!!AIN: vox
!!!YOY: 1941
!!!PPP: New York; London
!!!PPR: G. Schirmer
!!!ENC: David Huron
!!!EED: David Huron
!!!YEN: United States of America
!!!YER: 1992
!!!YEC: Copyright 1992 David Huron
!!!YEM: Rights to all derivative electronic formats reserved.
!!!YER: March 20, 1996
!!!AMT: simple quadruple
!!!EEV: 1.1
